Final project/assets/images/w-w-d-basic-icon.svg

<svg width="28" height="28" viewBox="0 0 28 28" fill="none" xmlns="http://www.w3.org/2000/svg">
<rect width="28" height="28" rx="4" fill="black"/>
<path d="M20.2904 11.7302L20.2633 11.6935L20.2579 11.6827L17.7931 8.02372L15.3283 11.6828L15.3231 11.693L15.2957 11.7302C14.9002 12.2659 14.6912 12.9023 14.6912 13.5706C14.6912 15.281 16.0827 16.6725 17.7931 16.6725C19.5034 16.6725 20.8949 15.281 20.8949 13.5706C20.895 12.9022 20.6859 12.2658 20.2904 11.7302Z" fill="#FFEBB9"/>
<path d="M17.7931 17.7293C15.5 17.7293 13.6344 15.8637 13.6344 13.5705C13.6344 12.6791 13.9121 11.8297 14.4376 11.1133L16.0579 8.70794L13.56 5L8.35563 12.7257C7.53737 13.8392 7.10498 15.1595 7.10498 16.5449C7.10498 20.1043 10.0007 23 13.56 23C16.9325 23 19.7088 20.4002 19.991 17.0994C19.3529 17.4984 18.5996 17.7293 17.7931 17.7293Z" fill="#FFEBB9"/>
</svg>

<svg width="28" height="28" fill="none" xmlns="http://www.w3.org/2000/svg"><rect width="28" height="28" rx="4" fill="#000"/><path d="m20.29 11.73-.027-.037-.005-.01-2.465-3.66-2.465 3.66-.005.01-.027.037a3.105 3.105 0 0 0 2.497 4.942 3.105 3.105 0 0 0 2.497-4.942Z" fill="#FFEBB9"/><path d="M17.793 17.73a4.163 4.163 0 0 1-4.159-4.16c0-.89.278-1.74.804-2.457l1.62-2.405L13.56 5l-5.204 7.726a6.405 6.405 0 0 0-1.251 3.819A6.462 6.462 0 0 0 13.56 23c3.373 0 6.149-2.6 6.431-5.9a4.132 4.132 0 0 1-2.198.63Z" fill="#FFEBB9"/></svg>
